svg/300/outlined/lte_mobiledata-fill.svg

<svg xmlns="http://www.w3.org/2000/svg" width="48" height="48" viewBox="0 -960 960 960"><path d="M183.079-330.001v-299.998h45.383v254.615h122.231v45.383H183.079Zm277.23 0v-254.615h-83.462v-45.383h212.691v45.383h-83.846v254.615h-45.383Zm202.076 0v-299.998h167.614v45.383h-122.23v81.924h122.23v45.384h-122.23v81.924h122.23v45.383H662.385Z"/></svg>

<svg xmlns="http://www.w3.org/2000/svg" width="48" height="48" viewBox="0 -960 960 960"><path d="M183.08-330v-300h45.38v254.62h122.23V-330H183.08Zm277.23 0v-254.62h-83.46V-630h212.69v45.38h-83.85V-330h-45.38Zm202.08 0v-300H830v45.38H707.77v81.93H830v45.38H707.77v81.93H830V-330H662.39Z"/></svg>
